src/assets/meat-icon.svg

<svg width="26" height="27" class="iconPrimary" viewBox="0 0 26 27" fill="none" xmlns="http://www.w3.org/2000/svg">
<path d="M24.688 8.93822C24.1161 7.27776 23.1573 5.77719 21.8909 4.56047C18.9911 1.66066 15.458 0.650313 13.8476 2.26231L8.96406 7.14544C7.59269 8.51681 6.82227 10.3768 6.82227 12.3162C6.82227 14.2556 7.59269 16.1156 8.96406 17.4869C10.3354 18.8583 12.1954 19.6287 14.1348 19.6287C16.0742 19.6287 17.9342 18.8583 19.3056 17.4869L24.1891 12.6038C24.9914 11.8015 25.1682 10.4998 24.688 8.93822ZM20.4548 8.86875C19.9787 9.34488 18.9517 9.08772 18.1567 8.29431C17.3617 7.50091 17.1061 6.47188 17.5822 5.99656C18.0584 5.52125 19.0854 5.778 19.88 6.57141C20.6746 7.36481 20.9306 8.39344 20.4548 8.86875Z" fill="currentColor"/>
<path d="M5.80393 25.3828C5.1803 25.3838 4.58021 25.1448 4.128 24.7154C3.6758 24.2859 3.40616 23.699 3.37496 23.0761C2.99773 23.0555 2.63047 22.9474 2.30223 22.7604C1.97399 22.5733 1.69377 22.3125 1.48374 21.9985C1.27371 21.6844 1.13963 21.3258 1.0921 20.951C1.04457 20.5763 1.0849 20.1955 1.2099 19.839C1.33489 19.4825 1.54113 19.16 1.81229 18.8969C2.08345 18.6339 2.4121 18.4375 2.77225 18.3234C3.13239 18.2093 3.51415 18.1805 3.88732 18.2394C4.2605 18.2983 4.61486 18.4432 4.92237 18.6626L6.76187 16.8658C6.80001 16.8284 6.84514 16.799 6.89467 16.7791C6.9442 16.7592 6.99717 16.7492 7.05055 16.7498C7.10393 16.7503 7.15667 16.7614 7.20577 16.7824C7.25487 16.8033 7.29937 16.8337 7.33671 16.8719C7.37405 16.91 7.40352 16.9552 7.42343 17.0047C7.44333 17.0542 7.45328 17.1072 7.45272 17.1606C7.45215 17.2139 7.44108 17.2667 7.42013 17.3158C7.39918 17.3649 7.36876 17.4094 7.33062 17.4467L5.22746 19.5011C5.15104 19.5759 5.04821 19.6176 4.94128 19.617C4.83435 19.6165 4.73194 19.5738 4.65627 19.4983C4.34653 19.2031 3.93507 19.0384 3.50719 19.0384C3.07932 19.0384 2.66786 19.2031 2.35812 19.4983C2.11563 19.739 1.95552 20.0503 1.90068 20.3876C1.84585 20.7248 1.89911 21.0708 2.05284 21.376C2.20657 21.6811 2.45289 21.9298 2.75655 22.0865C3.06021 22.2432 3.40565 22.2998 3.74343 22.2482C3.80605 22.239 3.86993 22.2447 3.93 22.2646C3.99006 22.2845 4.04464 22.3182 4.08939 22.3629C4.13414 22.4077 4.16781 22.4622 4.18773 22.5223C4.20765 22.5824 4.21326 22.6463 4.20412 22.7089C4.16522 22.959 4.18586 23.2149 4.26435 23.4556C4.34284 23.6962 4.47697 23.915 4.65587 24.0942C4.96563 24.3895 5.37718 24.5542 5.80515 24.5542C6.23312 24.5542 6.64466 24.3895 6.95443 24.0942C7.10533 23.9433 7.22504 23.7642 7.30671 23.567C7.38838 23.3698 7.43041 23.1585 7.43041 22.9451C7.43041 22.7317 7.38838 22.5204 7.30671 22.3232C7.22504 22.1261 7.10533 21.9469 6.95443 21.796C6.91642 21.7581 6.88631 21.7131 6.86582 21.6635C6.84533 21.6138 6.83488 21.5607 6.83507 21.507C6.83526 21.4533 6.84608 21.4002 6.86692 21.3507C6.88776 21.3012 6.91819 21.2564 6.95646 21.2188L9.05921 19.1635C9.13636 19.0881 9.2403 19.0464 9.34818 19.0476C9.45606 19.0489 9.55904 19.0929 9.63446 19.17C9.70988 19.2472 9.75157 19.3511 9.75035 19.459C9.74913 19.5669 9.70511 19.6699 9.62796 19.7453L7.79415 21.536C8.05272 21.9009 8.20592 22.33 8.23697 22.7761C8.26801 23.2223 8.17571 23.6684 7.97017 24.0656C7.76462 24.4628 7.45376 24.7958 7.07161 25.0281C6.68946 25.2604 6.25116 25.3832 5.80393 25.3828Z" fill="#EFEFEF"/>
<path class="iconSecondary" d="M21.9375 13.361H21.9172C20.1297 13.2741 17.9713 12.1321 16.1452 10.306C14.3419 8.5027 13.2007 6.36542 13.093 4.58767C13.0865 4.47993 13.123 4.37398 13.1945 4.29315C13.266 4.21232 13.3668 4.16321 13.4745 4.15664C13.5823 4.15007 13.6882 4.18657 13.769 4.2581C13.8499 4.32964 13.899 4.43036 13.9055 4.53811C13.9998 6.09933 15.0784 8.08955 16.7209 9.73161C18.3828 11.3932 20.3893 12.4734 21.9582 12.5494C22.066 12.5519 22.1683 12.5972 22.2426 12.6752C22.317 12.7533 22.3573 12.8576 22.3547 12.9654C22.3521 13.0731 22.3069 13.1754 22.2288 13.2498C22.1508 13.3241 22.0465 13.3644 21.9387 13.3619L21.9375 13.361Z" fill="currentColor"/>
</svg>

<svg xmlns="http://www.w3.org/2000/svg" width="26" height="27" fill="none" class="iconPrimary" viewBox="0 0 26 27">
    <path fill="currentColor" d="M24.688 8.938a11.07 11.07 0 0 0-2.797-4.378c-2.9-2.9-6.433-3.91-8.043-2.298L8.964 7.145a7.313 7.313 0 1 0 10.342 10.342l4.883-4.883c.802-.802.98-2.104.499-3.666Zm-4.233-.07c-.476.477-1.503.22-2.298-.574-.795-.793-1.05-1.822-.575-2.297.476-.476 1.503-.219 2.298.574.795.794 1.05 1.822.575 2.298Z"/>
    <path fill="#EFEFEF" d="M5.804 25.383a2.428 2.428 0 0 1-2.429-2.307 2.435 2.435 0 1 1 1.547-4.413l1.84-1.797a.405.405 0 0 1 .658.45.406.406 0 0 1-.09.13l-2.103 2.055a.406.406 0 0 1-.57-.003 1.666 1.666 0 0 0-2.299 0 1.62 1.62 0 0 0 1.385 2.75.406.406 0 0 1 .461.46 1.61 1.61 0 0 0 .452 1.386 1.666 1.666 0 0 0 2.298 0 1.625 1.625 0 0 0 0-2.298.406.406 0 0 1 .002-.577l2.103-2.056a.407.407 0 0 1 .569.582l-1.834 1.791a2.438 2.438 0 0 1-1.99 3.847Z"/>
    <path fill="currentColor" d="M21.938 13.361h-.02c-1.788-.087-3.947-1.229-5.773-3.055-1.803-1.803-2.944-3.94-3.052-5.718a.408.408 0 0 1 .813-.05C14 6.1 15.078 8.09 16.72 9.732c1.662 1.661 3.668 2.741 5.237 2.817a.406.406 0 1 1-.02.813v-.001Z" class="iconSecondary"/>
</svg>
